X: 15
T: HORNPIPE: Kitty's Wedding
C: C: Trad.; S: Various
C: Set Leaders: Mars, Tania, Anton
Z: Mars Agliullin ed.; Bannerman at The Session
N: https://thesession.org/members/26966/sets/94256
R: Hornpipe
M: 4/4
L: 1/8
Q: 1/2=82
K: Dmaj
|:fe|d2 Bd A2 FA|BA FE D2 ED|B,D A,B, DE FB|AF DF E2 fe|
d2 Bd A2 FA|BA FE D2 ED|B,D A,B, DE FB|AF EF D2:||
|:fg|af ed ba fd|Ad fd ed Bd|DF Ad FA de|fd gf e2 fg|
af ed ba fd|Ad fd ed Bd|DF Ad FA df|eA Bc d2:||

